assets/companies/dark/linkedin.svg

<svg width="20" height="20" viewBox="0 0 20 20" fill="none" xmlns="http://www.w3.org/2000/svg">
<g opacity="0.5" clip-path="url(#clip0_3447_3645)">
<path d="M18.5195 0H1.47656C0.660156 0 0 0.644531 0 1.44141V18.5547C0 19.3516 0.660156 20 1.47656 20H18.5195C19.3359 20 20 19.3516 20 18.5586V1.44141C20 0.644531 19.3359 0 18.5195 0ZM5.93359 17.043H2.96484V7.49609H5.93359V17.043ZM4.44922 6.19531C3.49609 6.19531 2.72656 5.42578 2.72656 4.47656C2.72656 3.52734 3.49609 2.75781 4.44922 2.75781C5.39844 2.75781 6.16797 3.52734 6.16797 4.47656C6.16797 5.42188 5.39844 6.19531 4.44922 6.19531ZM17.043 17.043H14.0781V12.4023C14.0781 11.2969 14.0586 9.87109 12.5352 9.87109C10.9922 9.87109 10.7578 11.0781 10.7578 12.3242V17.043H7.79688V7.49609H10.6406V8.80078H10.6797C11.0742 8.05078 12.043 7.25781 13.4844 7.25781C16.4883 7.25781 17.043 9.23438 17.043 11.8047V17.043Z" fill="#6C6C81"/>
</g>
<defs>
<clipPath id="clip0_3447_3645">
<rect width="20" height="20" fill="white"/>
</clipPath>
</defs>
</svg>

<svg xmlns="http://www.w3.org/2000/svg" width="20" height="20" fill="none" viewBox="0 0 20 20"><g clip-path="url(#a)" opacity=".5"><path fill="#6C6C81" d="M18.52 0H1.477C.66 0 0 .645 0 1.441v17.114C0 19.352.66 20 1.477 20H18.52c.816 0 1.48-.648 1.48-1.441V1.44C20 .645 19.336 0 18.52 0M5.934 17.043h-2.97V7.496h2.97zM4.449 6.195a1.72 1.72 0 1 1-.006-3.439 1.72 1.72 0 0 1 .006 3.44m12.594 10.848h-2.965v-4.64c0-1.106-.02-2.532-1.543-2.532-1.543 0-1.777 1.207-1.777 2.453v4.719H7.797V7.496h2.844v1.305h.039c.394-.75 1.363-1.543 2.804-1.543 3.004 0 3.559 1.976 3.559 4.547z"/></g><defs><clipPath id="a"><path fill="#fff" d="M0 0h20v20H0z"/></clipPath></defs></svg>
